public/piece/pixel/wP.svg

<svg xmlns="http://www.w3.org/2000/svg" shape-rendering="crispEdges" viewBox="0 -0.5 16 16"><path stroke="#000" d="M6 2h4M5 3h1m4 0h1M5 4h1m4 0h1M5 5h1m4 0h1M6 6h1m2 0h1M5 7h1m4 0h1M5 8h1m4 0h1M6 9h1m2 0h1m-5 1h1m4 0h1m-7 1h1m6 0h1m-8 1h1m6 0h1m-8 1h8"/><path stroke="#fdfdfd" d="M6 3h1"/><path stroke="#e1e1e1" d="M7 3h2M6 4h1M6 7h2m-2 3h1m-2 1h2m-2 1h1"/><path stroke="#a7a7a7" d="M9 3h1M9 4h1M9 5h1M8 6h1m0 1h1M7 8h3M8 9h1m0 1h1m0 1h1m-5 1h5"/><path stroke="#c1c1c1" d="M7 4h2M6 5h3M7 6h1m0 1h1M6 8h1m0 1h1m-1 1h2m-2 1h3"/></svg>

<svg xmlns="http://www.w3.org/2000/svg" viewBox="0 -0.5 16 16" shape-rendering="crispEdges">
<metadata>Made with Pixels to Svg https://codepen.io/shshaw/pen/XbxvNj</metadata>
<path stroke="#000000" d="M6 2h4M5 3h1M10 3h1M5 4h1M10 4h1M5 5h1M10 5h1M6 6h1M9 6h1M5 7h1M10 7h1M5 8h1M10 8h1M6 9h1M9 9h1M5 10h1M10 10h1M4 11h1M11 11h1M4 12h1M11 12h1M4 13h8" />
<path stroke="#fdfdfd" d="M6 3h1" />
<path stroke="#e1e1e1" d="M7 3h2M6 4h1M6 7h2M6 10h1M5 11h2M5 12h1" />
<path stroke="#a7a7a7" d="M9 3h1M9 4h1M9 5h1M8 6h1M9 7h1M7 8h3M8 9h1M9 10h1M10 11h1M6 12h5" />
<path stroke="#c1c1c1" d="M7 4h2M6 5h3M7 6h1M8 7h1M6 8h1M7 9h1M7 10h2M7 11h3" />
</svg>
